rospo-newyear-dark/symbolic/status/weather-showers-scattered-symbolic.svg

<svg height="16" width="16" xmlns="http://www.w3.org/2000/svg"><path d="m8 0c-2.07 0-3.83 1.27-4.59 3.06-1.93.29-3.41 1.93-3.41 3.94 0 .73.2 1.41.54 2h-.02c.56.97 1.52 1.68 2.65 1.91l2.33-2.33 1.75 1.75c.18-.49.44-.94.79-1.29l2.46-2.46 2.46 2.46c.44.44.77 1.01.93 1.65h.02l.01-.01h.01l.01-.01c1.22-.55 2.06-1.75 2.06-3.17 0-1.8-1.35-3.27-3.09-3.47-.46-2.29-2.48-4.03-4.91-4.03z" fill="#d3dae3"/><path d="m10.5 8-1.75 1.75c-.45.45-.75 1.06-.75 1.75 0 1.37 1.13 2.5 2.5 2.5s2.5-1.13 2.5-2.5c0-.69-.3-1.3-.75-1.75zm-5 2-1.75 1.75c-.45.45-.75 1.06-.75 1.75 0 1.37 1.13 2.5 2.5 2.5s2.5-1.13 2.5-2.5c0-.69-.3-1.3-.75-1.75z" fill="#d3dae3"/></svg>

<svg xmlns="http://www.w3.org/2000/svg" width="16" height="16" version="1.1">
 <path style="fill:#d3dae3" d="M 8,0 C 5.93,0 4.17,1.27 3.41,3.06 1.48,3.35 0,4.99 0,7 0,7.73 0.2,8.41 0.54,9 H 0.52 C 1.08,9.97 2.04,10.68 3.17,10.91 L 5.5,8.58 7.25,10.33 C 7.43,9.84 7.69,9.39 8.04,9.04 L 10.5,6.58 12.96,9.04 C 13.4,9.48 13.73,10.05 13.89,10.69 H 13.91 V 10.69 L 13.92,10.68 H 13.93 L 13.94,10.67 C 15.16,10.12 16,8.92 16,7.5 16,5.7 14.65,4.23 12.91,4.03 12.45,1.74 10.43,0 8,0 Z"/>
 <path style="fill:#d3dae3" d="M 10.5,8 8.75,9.75 C 8.3,10.2 8,10.81 8,11.5 8,12.87 9.13,14 10.5,14 11.87,14 13,12.87 13,11.5 13,10.81 12.7,10.2 12.25,9.75 Z M 5.5,10 3.75,11.75 C 3.3,12.2 3,12.81 3,13.5 3,14.87 4.13,16 5.5,16 6.87,16 8,14.87 8,13.5 8,12.81 7.7,12.2 7.25,11.75 Z"/>
</svg>
